svgs/sharp-light/chf-sign.svg

<svg xmlns="http://www.w3.org/2000/svg" viewBox="0 0 640 512"><!--! Font Awesome Pro 6.4.2 by @fontawesome - https://fontawesome.com License - https://fontawesome.com/license (Commercial License) Copyright 2023 Fonticons, Inc. --><path d="M80 32C35.8 32 0 67.8 0 112V400c0 44.2 35.8 80 80 80s80-35.8 80-80V384H128v16c0 26.5-21.5 48-48 48s-48-21.5-48-48V112c0-26.5 21.5-48 48-48s48 21.5 48 48v16h32V112c0-44.2-35.8-80-80-80zM224 48V32H192V48 464v16h32V464 256H384V464v16h32V464 48 32H384V48 224H224V48zM464 32H448V48 464v16h32V464 256H592h16V224H592 480V64H624h16V32H624 464z"/></svg>

<svg xmlns="http://www.w3.org/2000/svg" viewBox="0 0 640 512"><!--! Font Awesome Pro 6.6.0 by @fontawesome - https://fontawesome.com License - https://fontawesome.com/license (Commercial License) Copyright 2024 Fonticons, Inc. --><path d="M80 32C35.8 32 0 67.8 0 112L0 400c0 44.2 35.8 80 80 80s80-35.8 80-80l0-16-32 0 0 16c0 26.5-21.5 48-48 48s-48-21.5-48-48l0-288c0-26.5 21.5-48 48-48s48 21.5 48 48l0 16 32 0 0-16c0-44.2-35.8-80-80-80zM224 48l0-16-32 0 0 16 0 416 0 16 32 0 0-16 0-208 160 0 0 208 0 16 32 0 0-16 0-416 0-16-32 0 0 16 0 176-160 0 0-176zM464 32l-16 0 0 16 0 416 0 16 32 0 0-16 0-208 112 0 16 0 0-32-16 0-112 0 0-160 144 0 16 0 0-32-16 0L464 32z"/></svg>
